!!!OTL: Des Gesellen Feierabend (250a), S. 536
!!!id: T0438
**kern
*clefG2
*k[f#]
*G:
{4d
=1
4g
4g
4g
8g
8b
=2
4g
4d
4d}
=3
{4d
=4
4cc
8cc
8cc
4b
8dd
8b
=5
4a}
2r
=6
{4d
=7
4cc
4cc
8cc
8b
4a
=8
4b
4b
8b
8a}
=9
{4g
=10
4a
8a
8a
4f#
8e
8f#
=11
4g
4b
4dd}
=12
{4d
=13
4cc
4cc
8cc
8b
8a
8g
=14
4b
4b
8b
8a}
=15
{4g
=16
4a
8a
8a
4f#
8e
8f#
=17
4g}
2r
==
*-
!!!minrhy: 8
!!!meters: 4/4 ]  ZZ[6
!!!cut: Des Gesellen Feierabend (250a), S. 536
!!!reg: Luxemburg
!!!trd: Singendes Volk, Esch-Alzette, 1937 posth.
!!!rhy1: X_  X_X_X_XX  X_X_X_
!!!rhy2: X_  X_XXX_XX  X_0__
!!!key: T0438  08  G 4/4 ]  ZZ[6
!!!mod: HEPTATONIK IONISCH]  AMBITUS[8
!!!kad: -522521
!!!akz: 111-5_432_4433_2-715_4433_2-71_
!!!fot: 'a__b__c__d__cv_dv_
!!!for: 'a__b__c__bw_d__b__
!!!fok: '^__^a_^a_Va_^a_V__
!! PHRAS[AUFTAKTIG]
!!!fkt: Berufslied
!!!bem: Heffingen, hhh Nikolaus Ewen, 9.9.1934
!! THILL; Mathias
!! PR[43] 2K[0] 2G[7] 3K[6] 3G[4] 4A[2] 4Ü[0] 5A[0] 6K[0] 6G[6]
!! 7K[0] 7G[0] 8A[0] MEHR[0] SI[24] ABS[54] SR[7] SP[17]
!! ST[12] 2k[4] 2g[19] 3k[4] 3g[4] 4d[2] 4ü[0] 5d[2] 6k[0] 6g[0]
!! 7k[0] 7g[0] 8d[0] mehr[0] si[33] dm[-9] sr[22] sp[11]
!! 1F[48] 2F[43] 3F[5] 4F[0] LF[0] 2P[3] 3P[0] 4P[0] TRI[0] DF[4] AB[58]
!! TF[0] U3K[0] U3[0] U4[0] U4Ü[0] U5[5] U6K[0] U6[0] U7K[0] U7[0]
!! N1[20] N2K[0] N2[4] N3K[0] N3[15] N4[11] N4Ü[0] N5[27] N6K[0] N6[18]
!!!n7k: 0] N7[0] O1[0] O2K[0] O2[0] O3K[0] O3[0] HÖ[0
